X: 1116
T: Tiokronorspolskan
R: Polska
S: efter Hjort Anders Olsson
O: Dalarna, Bingsjö
Z: Per Oldberg 2012-07-28
M: 3/4
L: 1/8
K: A
E>A c/d/c/A/ EA | AG/F/ G3A | B/A/B/c/ dd B>c | dd c/d/c/B/ A/B/A/G/ | 
E/C/E/A/ c/d/c/A/ EA | AG/F/ G3A | B/A/B/c/ dd Bd/B/ | ED C4 :| 
|: c/d/c/B/ A/E/A/c/ fd | d/f/d/B/ G/E/G/B/ dc | cd/c/ Bc/B/ Af | e>e ^dd/B/ G2 | 
c/d/c/B/ A/E/A/c/ fd | d/f/d/B/ G/E/G/B/ dc | cd/c/ Bc/B/ Ac/A/ | GE/D/ C4 :| 
(:musicend:)
(:music:)
